assets/icons/qvision/videogame_asset.svg

<svg width="24" height="24" viewBox="0 0 24 24" fill="none" xmlns="http://www.w3.org/2000/svg">
<g clip-path="url(#clip0_147_3091)">
<path d="M21 6H3C1.9 6 1 6.9 1 8V16C1 17.1 1.9 18 3 18H21C22.1 18 23 17.1 23 16V8C23 6.9 22.1 6 21 6ZM11 13H8V16H6V13H3V11H6V8H8V11H11V13ZM15.5 15C14.67 15 14 14.33 14 13.5C14 12.67 14.67 12 15.5 12C16.33 12 17 12.67 17 13.5C17 14.33 16.33 15 15.5 15ZM19.5 12C18.67 12 18 11.33 18 10.5C18 9.67 18.67 9 19.5 9C20.33 9 21 9.67 21 10.5C21 11.33 20.33 12 19.5 12Z" fill="#323232"/>
</g>
<defs>
<clipPath id="clip0_147_3091">
<rect width="24" height="24" fill="white"/>
</clipPath>
</defs>
</svg>

<svg xmlns="http://www.w3.org/2000/svg" height="24" viewBox="0 0 24 24" width="24"><path d="M0 0v24h24V0H0zm23 16c0 1.1-.9 2-2 2H3c-1.1 0-2-.9-2-2V8c0-1.1.9-2 2-2h18c1.1 0 2 .9 2 2v8z" fill="none"/><path d="M21 6H3c-1.1 0-2 .9-2 2v8c0 1.1.9 2 2 2h18c1.1 0 2-.9 2-2V8c0-1.1-.9-2-2-2zm-10 7H8v3H6v-3H3v-2h3V8h2v3h3v2zm4.5 2c-.83 0-1.5-.67-1.5-1.5s.67-1.5 1.5-1.5 1.5.67 1.5 1.5-.67 1.5-1.5 1.5zm4-3c-.83 0-1.5-.67-1.5-1.5S18.67 9 19.5 9s1.5.67 1.5 1.5-.67 1.5-1.5 1.5z"/></svg>
